X:1
T:Brass Trio
T:Brass Trio 
T:By Ryan Donahue
T:With flavors of the world.
C:By Ryan Donahue
%%score 1 2 3
L:1/8
Q:1/4=80
M:4/4
K:Bb
V:1 bass nm="Trombone" snm="Tbn."
V:2 bass nm="Trombone" snm="Tbn."
V:3 bass nm="Tuba" snm="Tba."
V:1
"^A" z8 | z8 |!f! z2 D/F/C/D/ B,/C/G,/B,/ F,/G,/D,/F,/ |!<(! E,F, G,B,/C/ D3!ff! C-!<)! | %4
 C z!f! D/F/C/D/ B,/C/G,/B,/ F,/G,/D,/F,/ |!<(! E,F,G,!~(!A, !~)!DC3/2A,G,/!<)! |!ff! F,2 F3 EDB, | %7
 CB,CD C/B,/ B,3 | z2 D/F/C/D/ B,/C/G,/B,/ F,/G,/D,/F,/ |!<(! E,F, G,B,/C/ D3!ff! C-!<)! | %10
 C z!f! D/F/C/D/ B,/C/G,/B,/ F,/G,/D,/F,/ |!<(! E,F,G,!~(!A, !~)!DC3/2A,G,/!<)! |!ff! F,2 F3 EDB, | %13
 CB,CD C/B,/ B,3 |!>(! B,4 F,4!>)! |!mf!!<(! A,2 B,2 C2 D2!<)! |!f!!>(! F4 C4!>)! |!mf! G,4 B,4 | %18
!>(! B,G,F,E, !fermata!D,4!>)! |"^B"!mf! G,2 G,/A,/B,/C/ B,>F, F,>F, | %20
!<(! E,F,D,C, D,!~(!B,, !~)!F,2!<)! |!f! _DE C>B, CD B,>_A, | B,C A,>G, A,2 (3E,G,B, | %23
[K:Db] DE CB,/C/ DFCB, | CD B,A,/B,/ CDB,F, | D,E, C,B,,/C,/ D,F, G,/B,/C/E/ | %26
[K:Bb] !tenuto!F4 !tenuto!C4 | !tenuto!D6 G,B, | C4 B,4 | C4 A,4 | B,8 | B,8 | %32
"^C"!f! z B,DF CDB,C | G,B,F,G, A,4 | z B,DF CDB,C | G,B,F,G, A,B, F,/G,/A,/B,/ | C4 (3C2 B,2 A,2 | %37
 E8 | !fermata!F8 |"^D"!mp!!<(! G,4 A,4!<)! |!mf!!>(! B,8!>)! |!mp!!<(! G,4 A,4!<)! | %42
!mf!!<(! !>!D2 !>!F6!<)! |!f! D2 F2 C2 D2 |!>(! B,2 C2 G,2 B,2!>)! |!mf! C4!>(! C2 B,2!>)! | %46
!<(! C4 D2!f! !>!F2-!<)! | F4 !>!D2 !>!C2 | !>!D2 !>!F2 !>!D4 |!mp!!<(! B,4 D2 D2!<)! |!mf! E8 | %51
 D8 | z8 |] %53
V:2
 z8 |!mf! B,4 F,4 | D,2 F,2 B,,3!<(! D,!<)! |!f!!<(! G,A, B,D/E/ F3!ff! E-!<)! | %4
 E z!mf! F,2 B,,2 D,2 |!<(! C,D,E,!~(!F, !~)!B, A,3!<)! |!ff! F,2 B,3 G,F,G, | _A,B,A,B, G,B,G,E, | %8
 D,2 F,2 B,,3!<(! D,!<)! |!f!!<(! C,D, E,G,/_A,/ B,3!ff! E-!<)! | E z!mf! D,2 F,2 B,,2 | %11
!<(! E, D,2 !~(!F, !~)!B, A,3!<)! |!ff! F,2 B,3 E,F,G, | _A,B,A,B, G,B,E_G |!>(! F4 C4!>)! | %15
!mf!!>(! A,2 F,2 G,4!>)! |!p! D,4 C,4 | B,,4 D,4 |!<(! B,,C,D,E, !fermata!F,4!<)! | %19
!mp! D,2 G,2 D,2 F,2 | C,4 D,4 | B,2 G,>E, _A,F, G,>F, | G,2 F,>D, C,2 (3C,D,G, | %23
[K:Db] .G,.G, .G,B,/C/ .G,.G,.G,.G, | .F,.F, .F,A,/E,/ .F,.F,D, z | %25
 .G,.G,.G,.G, .G,F, C,/B,,/C,/E,/ |[K:Bb] !tenuto!D,4 !tenuto!F,4 | !tenuto!G,6 z2 | D,4 C,4 | %29
 B,,4 F,4 | E,8 | F,8 |!f! z D,F,A, G,F,C,D, | B,,C,D,E, F,4 | z D,F,A, G,F,C,D, | %35
 B,,C,D,E, F,G, D,/E,/F,/G,/ | A,4 (3A,2 G,2 F,2 | A,8 | !fermata!B,8 |!mp!!<(! E,4 F,4!<)! | %40
!mf!!>(! G,8!>)! |!mp! E,4!<(! F,4!<)! |!mf! G,8 | D4!<(! A,4!<)! |!f! !>!D2 !>!F2 !>!D4 | %45
 A,4!>(! A,2 G,2!>)! |!mf!!<(! F,4 B,2!f! !>!D2-!<)! | D4 !>!B,2 !>!A,2 | !>!B,2 !>!D2 !>!B,4 | %49
!mp!!<(! G,4 B,2 B,2!<)! |!mf! C8 | B,8 | z8 |] %53
V:3
!ff! B,,,F,,B,,F,, D,F,,B,,F,, | B,,,F,,B,,F,, D,F,,B,,F,, | B,,,F,,B,,F,, D,F,,B,,F,, | %3
!f! B,,,F,,B,,F,, D,F,,B,,F,, | B,,,F,,B,,F,, D,F,,B,,F,, | B,,,F,,B,,F,, D,F,,B,,F,, | %6
!f! D,,2 B,,2 G,,2 F,,2 | B,,,2 E,,2 A,,4 | B,,,F,,B,,F,, D,F,,B,,F,, | %9
!f! B,,,F,,B,,F,, D,F,,B,,F,, | B,,,F,,B,,F,, D,F,,B,,F,, | B,,,F,,B,,F,, D,F,,B,,F,, | %12
!f! D,,2 B,,2 G,,2 F,,2 | B,,,2 E,,2 A,,4 |!>(! B,,4 G,,4!>)! |!mf! A,,4!<(! !>!E,,2 !>!F,,2!<)! | %16
!f! !tenuto!G,,4 A,,4 |!>(! !^!B,,4 G,,4!>)! |!mp!!<(! E,,2 A,,2 !fermata!B,,4!<)! | %19
!mp! E,,F,, G,,2 E,,B,,A,,G,, | F,,D,,A,,G,, F,,4 | B,,F,, G,,2 F,,B,,, E,,2 | %22
 F,,A,, G,,2 A,,F,, E,,2 |[K:Db] B,,2 G,,2 .G,,.G,,.G,,.G,, | D,,2 F,,2 C,,4 | %25
 B,,,2 C,,2 z D,,2 F,, |[K:Bb] !tenuto!B,,4 !tenuto!A,,4 | !tenuto!B,,6 z2 | G,,4 A,,4 | B,,4 C,4 | %30
 G,,8 | F,,8 |!mf! !>!D,,E,,F,,G,, !>!E,,2 C,,D,, | !>!E,,2 !>!F,,2 !>!D,,4 | %34
 !>!F,,2 !>!A,,2 !>!D,2 !>!C,2 | B,,2 F,,2 C,,F,,G,,B,, | F,,6 z2 | F,,8 | !fermata!B,,8 | %39
!p! B,,4!<(! C,4!<)! |!mp! D,8 |!<(! E,,4 F,,4!<)! |!mf! G,,8 | F,,8 | D,,8 | %45
!f! D,,2 F,,2 C,,2 D,,2 | B,,,2!<(! !>!C,,6!<)! |!ff! !>!G,,8 | !>!D,,8 |!mp!!<(! G,,8!<)! | %50
!mf! A,,8 | B,,8 | z8 |] %53

